_includes/icons/color-today.svg

<svg fill="#666" height="50" viewBox="0 0 48 48" width="50" xmlns="http://www.w3.org/2000/svg"><path d="m5 39v-24h38v24c0 2.210938-1.789062 4-4 4h-30c-2.210937 0-4-1.789062-4-4" fill="#dcedc8"/><path d="m43 11v6h-38v-6c0-2.210937 1.789063-4 4-4h30c2.210938 0 4 1.789063 4 4" fill="#4caf50"/><path d="m36 11c0 1.65625-1.34375 3-3 3s-3-1.34375-3-3 1.34375-3 3-3 3 1.34375 3 3" fill="#2e7d32"/><path d="m18 11c0 1.65625-1.34375 3-3 3s-3-1.34375-3-3 1.34375-3 3-3 3 1.34375 3 3" fill="#2e7d32"/><path d="m33 4c-1.105469 0-2 .894531-2 2v5c0 1.105469.894531 2 2 2s2-.894531 2-2v-5c0-1.105469-.894531-2-2-2" fill="#b0bec5"/><path d="m15 4c-1.105469 0-2 .894531-2 2v5c0 1.105469.894531 2 2 2s2-.894531 2-2v-5c0-1.105469-.894531-2-2-2" fill="#b0bec5"/><path d="m31.738281 22.058594-8.980468 8.996094-4.285157-4.277344-2.472656 2.480469 6.761719 6.742187 11.453125-11.46875z" fill="#4caf50"/></svg>

<svg xmlns="http://www.w3.org/2000/svg" viewBox="0 0 48 48" width="50" height="50" fill="#666"><path d="M 5 39 L 5 15 L 43 15 L 43 39 C 43 41.210938 41.210938 43 39 43 L 9 43 C 6.789063 43 5 41.210938 5 39" fill="#dcedc8"/><path d="M 43 11 L 43 17 L 5 17 L 5 11 C 5 8.789063 6.789063 7 9 7 L 39 7 C 41.210938 7 43 8.789063 43 11" fill="#4caf50"/><path d="M 36 11 C 36 12.65625 34.65625 14 33 14 C 31.34375 14 30 12.65625 30 11 C 30 9.34375 31.34375 8 33 8 C 34.65625 8 36 9.34375 36 11" fill="#2e7d32"/><path d="M 18 11 C 18 12.65625 16.65625 14 15 14 C 13.34375 14 12 12.65625 12 11 C 12 9.34375 13.34375 8 15 8 C 16.65625 8 18 9.34375 18 11" fill="#2e7d32"/><path d="M 33 4 C 31.894531 4 31 4.894531 31 6 L 31 11 C 31 12.105469 31.894531 13 33 13 C 34.105469 13 35 12.105469 35 11 L 35 6 C 35 4.894531 34.105469 4 33 4" fill="#b0bec5"/><path d="M 15 4 C 13.894531 4 13 4.894531 13 6 L 13 11 C 13 12.105469 13.894531 13 15 13 C 16.105469 13 17 12.105469 17 11 L 17 6 C 17 4.894531 16.105469 4 15 4" fill="#b0bec5"/><path d="M 31.738281 22.058594 L 22.757813 31.054688 L 18.472656 26.777344 L 16 29.257813 L 22.761719 36 L 34.214844 24.53125 Z" fill="#4caf50"/></svg>
